Yaru++/mimetypes/16/text-dockerfile.svg

<svg id="svg41" height="16" viewBox="0 0 4.233125 4.233125" width="16" xmlns="http://www.w3.org/2000/svg">
  <path id="path17" d="m6.0098 3.9883v1.5586h1.5586v-1.5586zm2 0v1.5586h1.5586v-1.5586zm4.2598 1.2832c-.52394.35908-.76491 1.0092-.60156 1.623.16516.61336.69874 1.0562 1.332 1.1055.21163.59859.77721.99911 1.4121 1 .6349-.0008906 1.2005-.40141 1.4121-1-.21163-.59859-.77721-.99911-1.4121-1-.30289.0009283-.5984.093532-.84766.26562.10129-.28586.11354-.59571.03516-.88867-.16492-.61272-.69753-1.0554-1.3301-1.1055zm.73047 2.7285h-12c-.0000004 3.3137 2.6863 5 6 5s6-1.6863 6-5zm-9.5586-2.0039v1.5586h1.5586v-1.5586zm2 0v1.5586h1.5586v-1.5586zm2 0v1.5586h1.5586v-1.5586zm2 0v1.5586h1.5586v-1.5586zm-5.9414 3.0039a.5.5 0 0 1 .5.5.5.5 0 0 1 -.5.5.5.5 0 0 1 -.5-.5.5.5 0 0 1 .5-.5z" fill="#808080" stroke-width=".13229" transform="matrix(.26770839392 0 0 .26770839392 -.135442 -.040795)"/>
</svg>

<?xml version="1.0" encoding="UTF-8" standalone="no"?>
<svg
   xmlns:dc="http://purl.org/dc/elements/1.1/"
   xmlns:cc="http://creativecommons.org/ns#"
   xmlns:rdf="http://www.w3.org/1999/02/22-rdf-syntax-ns#"
   xmlns:svg="http://www.w3.org/2000/svg"
   xmlns="http://www.w3.org/2000/svg"
   xmlns:sodipodi="http://sodipodi.sourceforge.net/DTD/sodipodi-0.dtd"
   xmlns:inkscape="http://www.inkscape.org/namespaces/inkscape"
   width="16"
   height="16"
   version="1.1"
   viewBox="0 0 4.233125 4.233125"
   id="svg41"
   sodipodi:docname="text-dockerfile.svg"
   inkscape:version="0.92.4 (5da689c313, 2019-01-14)">
  <metadata
     id="metadata45">
    <rdf:RDF>
      <cc:Work
         rdf:about="">
        <dc:format>image/svg+xml</dc:format>
        <dc:type
           rdf:resource="http://purl.org/dc/dcmitype/StillImage" />
        <dc:title></dc:title>
      </cc:Work>
    </rdf:RDF>
  </metadata>
  <sodipodi:namedview
     pagecolor="#ffffff"
     bordercolor="#666666"
     borderopacity="1"
     objecttolerance="10"
     gridtolerance="10"
     guidetolerance="10"
     inkscape:pageopacity="0"
     inkscape:pageshadow="2"
     inkscape:window-width="1920"
     inkscape:window-height="1016"
     id="namedview43"
     showgrid="false"
     inkscape:zoom="52.4375"
     inkscape:cx="8"
     inkscape:cy="8"
     inkscape:window-x="0"
     inkscape:window-y="27"
     inkscape:window-maximized="1"
     inkscape:current-layer="svg41" />
  <defs
     id="defs17">
    <linearGradient
       id="linearGradient4226"
       x1="529.65503"
       x2="-35.310001"
       y1="401.58401"
       y2="119.093"
       gradientTransform="matrix(0,-0.11988932,-0.11988589,0,67.016455,292.81288)"
       gradientUnits="userSpaceOnUse">
      <stop
         style="stop-color:#d24625"
         offset="0"
         id="stop2" />
      <stop
         style="stop-color:#ec532f"
         offset="1"
         id="stop4" />
    </linearGradient>
    <linearGradient
       id="linearGradient4358"
       x1="88"
       x2="488"
       y1="88"
       y2="488"
       gradientUnits="userSpaceOnUse">
      <stop
         style="stop-color:#000000;stop-opacity:.58823532"
         offset="0"
         id="stop7" />
      <stop
         style="stop-color:#000000;stop-opacity:0"
         offset=".88"
         id="stop9" />
      <stop
         style="stop-color:#000000"
         offset="1"
         id="stop11" />
    </linearGradient>
    <filter
       id="filter4346"
       width="1.026"
       height="1.022"
       x="-0.0099999998"
       y="-0.0099999998"
       style="color-interpolation-filters:sRGB">
      <feGaussianBlur
         stdDeviation="2.12"
         id="feGaussianBlur14" />
    </filter>
    <filter
       style="color-interpolation-filters:sRGB"
       id="b"
       x="-0.059999999"
       y="-0.059999999"
       width="1.12"
       height="1.12">
      <feGaussianBlur
         stdDeviation="0.5"
         id="feGaussianBlur8" />
    </filter>
    <filter
       style="color-interpolation-filters:sRGB"
       id="c"
       x="-0.035999998"
       y="-0.035999998"
       width="1.072"
       height="1.072">
      <feGaussianBlur
         stdDeviation="0.3"
         id="feGaussianBlur5" />
    </filter>
  </defs>
  <g
     style="display:inline;opacity:1;fill:#808080;fill-opacity:1;stroke-width:0.13229001;enable-background:new"
     transform="matrix(1.011824,0,0,1.011824,-0.13544198,-0.04079506)"
     id="g19">
    <path
       inkscape:connector-curvature="0"
       transform="scale(0.26458)"
       d="M 6.0098,3.9883 V 5.5469 H 7.5684 V 3.9883 Z m 2,0 V 5.5469 H 9.5684 V 3.9883 Z m 4.2598,1.2832 c -0.52394,0.35908 -0.76491,1.0092 -0.60156,1.623 0.16516,0.61336 0.69874,1.0562 1.332,1.1055 0.21163,0.59859 0.77721,0.99911 1.4121,1 0.6349,-8.906e-4 1.2005,-0.40141 1.4121,-1 -0.21163,-0.59859 -0.77721,-0.99911 -1.4121,-1 -0.30289,9.283e-4 -0.5984,0.093532 -0.84766,0.26562 0.10129,-0.28586 0.11354,-0.59571 0.03516,-0.88867 -0.16492,-0.61272 -0.69753,-1.0554 -1.3301,-1.1055 z M 13.00007,8 h -12 c -4e-7,3.3137 2.6863,5 6,5 3.3137,0 6,-1.6863 6,-5 z M 3.44147,5.9961 v 1.5586 h 1.5586 V 5.9961 Z m 2,0 v 1.5586 h 1.5586 V 5.9961 Z m 2,0 v 1.5586 h 1.5586 V 5.9961 Z m 2,0 v 1.5586 h 1.5586 V 5.9961 Z M 3.50007,9 a 0.5,0.5 0 0 1 0.5,0.5 0.5,0.5 0 0 1 -0.5,0.5 0.5,0.5 0 0 1 -0.5,-0.5 0.5,0.5 0 0 1 0.5,-0.5 z"
       style="color:#000000;opacity:1;isolation:auto;mix-blend-mode:normal;solid-color:#000000;fill:#808080;fill-opacity:1;color-rendering:auto;image-rendering:auto;shape-rendering:auto"
       id="path17" />
  </g>
</svg>
